!!!OTL: O Tannenbaum
!!!XEN: O Christmas Tree
!!!COM: Unknown
!!!ODT: 1550 (16th century)
!!!YOR: The Christmas Fake Book
!!!YOY: 1990
!!!AST: Christmas song
!!!YEC: Brian Luke, 2001
**kern	**harm
*k[f#]	*k[f#]
*M3/4	*M3/4
*G:	*G:
*>A	*>A
4d	.
=1	=1
8.g	I
16g	.
4g	.
4a	V
=2	=2
8.b	I
16b	.
4.b	.
8b	.
=3	=3
8a	ii
8b	.
4cc	.
4f#	V7
=4	=4
4a	I;
4g	.
8r	.
*>A	*>A
8d	.
=5	=5
8.g	.
16g	.
4g	.
4a	V
=6	=6
8.b	I
16b	.
4.b	.
8b	.
=7	=7
8a	ii
8b	.
4cc	.
4f#	V7
=8	=8
4a	I;
4g	.
8r	.
*>B	*>B
8dd	.
=9	=9
8dd	.
8b	.
4.ee	IV
8dd	.
=10	=10
8dd	V7
8cc	.
4.cc	.
8cc	.
=11	=11
8cc	.
8a	.
4.dd	.
8cc	.
=12	=12
8cc	I
8b	.
4b	.
*>A	*>A
4d	.
=13	=13
8.g	.
16g	.
4g	.
4a	V
=14	=14
8.b	V7/IV
16b	.
4.b	V7/ii
8b	.
=15	=15
8a	ii
8b	.
4cc	.
4f#	V7
=16	=16
4a	I;
4g	.
*-	*-
